src/img/icon-account.svg

<?xml version="1.0" encoding="UTF-8"?>
<svg width="40px" height="40px" viewBox="0 0 40 40" version="1.1" xmlns="http://www.w3.org/2000/svg" xmlns:xlink="http://www.w3.org/1999/xlink">
    <!-- Generator: Sketch 51 (57462) - http://www.bohemiancoding.com/sketch -->
    <title>category-block-icon-account</title>
    <desc>Created with Sketch.</desc>
    <defs></defs>
    <g id="category-block-icon-account" stroke="none" stroke-width="1" fill="none" fill-rule="evenodd">
        <circle id="Oval" fill-opacity="0.05" fill="#546B81" cx="20" cy="20" r="20"></circle>
        <path d="M28.2683718,20 C28.2683718,19.429247 28.2054408,18.8578725 28.0840898,18.2850068 L27.8748312,18.7523933 L29.7703761,17.6667411 C29.97978,17.5468073 30.0514492,17.2792815 29.9300466,17.0707246 L27.5184119,12.9277898 C27.3973584,12.7198326 27.1304186,12.6497457 26.9228211,12.7714132 L25.0622448,13.8618479 L25.5721562,13.913086 C24.5611761,13.0075925 23.7568078,12.5130128 22.6096732,12.189973 L22.9266008,12.6084783 L22.9266008,10.4347826 C22.9266008,10.1946588 22.7319435,10 22.4918214,10 L17.6685519,10 C17.4284299,10 17.2337726,10.1946588 17.2337726,10.4347826 L17.2337726,12.6084783 L17.5507002,12.189973 C16.3738516,12.5213804 15.4561533,13.0602472 14.5038357,13.9130629 L15.0080148,13.8585613 L13.0811186,12.7681265 C12.8741943,12.6510276 12.6115847,12.721863 12.4916149,12.9271373 L10.0703336,17.0700721 C9.94849055,17.2785518 10.019873,17.5463793 10.2293126,17.6665629 L12.1212401,18.752215 L11.9126933,18.2831348 C11.7893112,18.8531961 11.7255988,19.4258805 11.7255988,20 C11.7255988,20.5840679 11.7868811,21.1578611 11.90787,21.7168652 L12.1167555,21.2475908 L10.218799,22.3344386 C10.0094074,22.4543448 9.93770821,22.7218272 10.0590531,22.9303893 L12.4694821,27.0733241 C12.588849,27.2784865 12.8506982,27.3499989 13.0577772,27.2339907 L15.0063781,26.1423602 L14.5033056,26.0864616 C15.4509125,26.9378595 16.3701435,27.4776262 17.5499318,27.8122012 L17.2337726,27.393913 L17.2337726,29.5652174 C17.2337726,29.8053412 17.4284299,30 17.6685519,30 L22.4918214,30 C22.7319435,30 22.9266008,29.8053412 22.9266008,29.5652174 L22.9266008,27.393913 L22.6104416,27.8122012 C23.7583501,27.486667 24.5636635,26.9914036 25.5733876,26.0868911 L25.0649577,26.1390313 L26.944827,27.2306617 C27.1525774,27.3513013 27.4187933,27.2805851 27.539291,27.0727513 L29.9412792,22.9298165 C30.0622463,22.7211732 29.9902771,22.4539364 29.780891,22.3342614 L27.879317,21.2474136 L28.0887136,21.7159299 C28.20808,21.1584917 28.2683718,20.5850127 28.2683718,20 L28.2683718,20 Z M27.398813,20 C27.398813,20.5240211 27.3449378,21.0364677 27.2384308,21.5338527 C27.1987936,21.7189572 27.2834779,21.9084348 27.4478274,22.002369 L29.3494014,23.0892168 L29.1890131,22.4936617 L26.7870249,26.6365965 L27.3814889,26.4786861 L25.5016196,25.3870557 C25.3387399,25.2924723 25.1334821,25.3135218 24.9931898,25.4391958 C24.0740942,26.2625231 23.3778257,26.6907245 22.3732013,26.9756249 C22.18614,27.0286734 22.0570421,27.1994739 22.0570421,27.393913 L22.0570421,29.5652174 L22.4918214,29.1304348 L17.6685519,29.1304348 L18.1033313,29.5652174 L18.1033313,27.393913 C18.1033313,27.1994739 17.9742333,27.0286734 17.7871721,26.9756249 C16.7434582,26.6796392 15.9385562,26.2070057 15.084461,25.4396254 C14.9460184,25.3152386 14.7437591,25.2927647 14.5813885,25.3837267 L12.6327876,26.4753572 L13.2210828,26.6360237 L10.8106539,22.4930889 L10.650908,23.0890396 L12.5488646,22.0021918 C12.7133289,21.9080128 12.7978413,21.7181505 12.7577501,21.5329174 C12.6498539,21.0344052 12.5951575,20.5222778 12.5951575,20 C12.5951575,19.4889993 12.6520234,18.9778557 12.7625734,18.4670826 C12.8026341,18.2819903 12.7182813,18.0922573 12.5540265,17.9980023 L10.6620991,16.9123502 L10.8210781,17.5088409 L13.2423594,13.3659061 L12.6528556,13.524917 L14.5797518,14.6153517 C14.7421013,14.7072256 14.9449653,14.6852961 15.0839309,14.5608501 C15.9428302,13.791692 16.7463545,13.3198675 17.7864037,13.0269835 C17.9738471,12.9741984 18.1033313,12.8032135 18.1033313,12.6084783 L18.1033313,10.4347826 L17.6685519,10.8695652 L22.4918214,10.8695652 L22.0570421,10.4347826 L22.0570421,12.6084783 C22.0570421,12.8032135 22.1865262,12.9741984 22.3739697,13.0269835 C23.3769271,13.3094222 24.0719558,13.7367726 24.9920095,14.5608271 C25.1327815,14.6869108 25.3388781,14.7076202 25.5019209,14.6120651 L27.3624971,13.5216303 L26.7669063,13.3652536 L29.178541,17.5081884 L29.3382115,16.9121719 L27.4426666,17.9978241 C27.2788321,18.0916585 27.1942816,18.2805051 27.233408,18.4652106 C27.342513,18.9802665 27.398813,19.4914354 27.398813,20 L27.398813,20 Z M23.1784522,20 C23.1784522,21.7398078 21.7537505,23.1521739 19.9957795,23.1521739 C18.2362741,23.1521739 16.8131067,21.740679 16.8131067,20 C16.8131067,18.260081 18.2367126,16.8478261 19.9957795,16.8478261 C21.7533118,16.8478261 23.1784522,18.2609523 23.1784522,20 L23.1784522,20 Z M24.048011,20 C24.048011,17.7790477 22.2319143,15.9782609 19.9957795,15.9782609 C17.7580214,15.9782609 15.943548,17.7782668 15.943548,20 C15.943548,22.2225384 17.7576273,24.0217391 19.9957795,24.0217391 C22.2323085,24.0217391 24.048011,22.2217578 24.048011,20 L24.048011,20 Z" id="Settings" fill="#546B81" fill-rule="nonzero"></path>
    </g>
</svg>

<svg width="40" height="40" xmlns="http://www.w3.org/2000/svg"><g fill="#546B81" fill-rule="evenodd"><circle fill-opacity=".05" cx="20" cy="20" r="20"/><path d="M28.268 20c0-.57-.063-1.142-.184-1.715l-.21.467 1.896-1.085a.435.435 0 0 0 .16-.596l-2.412-4.143a.435.435 0 0 0-.595-.157l-1.86 1.09.51.052c-1.012-.905-1.816-1.4-2.963-1.723l.317.418v-2.173a.435.435 0 0 0-.435-.435h-4.823a.435.435 0 0 0-.435.435v2.173l.317-.418c-1.177.331-2.095.87-3.047 1.723l.504-.054-1.927-1.09a.435.435 0 0 0-.59.158l-2.42 4.143a.435.435 0 0 0 .158.597l1.892 1.085-.208-.469a8.1 8.1 0 0 0-.005 3.434l.209-.47-1.898 1.087a.435.435 0 0 0-.16.596l2.41 4.143c.12.205.382.277.589.161l1.948-1.092-.503-.056c.948.852 1.867 1.392 3.047 1.726l-.316-.418v2.171c0 .24.194.435.435.435h4.823c.24 0 .435-.195.435-.435v-2.171l-.317.418c1.148-.325 1.954-.82 2.963-1.725l-.508.052 1.88 1.092c.208.12.474.05.594-.158l2.402-4.143a.435.435 0 0 0-.16-.596l-1.902-1.087.21.469c.12-.558.18-1.131.18-1.716zm-.87 0c0 .524-.053 1.036-.16 1.534a.435.435 0 0 0 .21.468l1.901 1.087-.16-.595-2.402 4.143.594-.158-1.88-1.092a.435.435 0 0 0-.508.052c-.919.824-1.615 1.252-2.62 1.537a.435.435 0 0 0-.316.418v2.171l.435-.435h-4.823l.434.435v-2.171a.435.435 0 0 0-.316-.418c-1.044-.296-1.848-.769-2.703-1.536a.435.435 0 0 0-.503-.056l-1.948 1.091.588.161-2.41-4.143-.16.596 1.898-1.087a.435.435 0 0 0 .209-.47 7.234 7.234 0 0 1 .005-3.065.435.435 0 0 0-.209-.469l-1.892-1.086.16.597 2.42-4.143-.59.159 1.928 1.09c.162.092.365.07.504-.054.859-.77 1.662-1.241 2.702-1.534a.435.435 0 0 0 .317-.419v-2.173l-.434.435h4.823l-.435-.435v2.173c0 .195.13.366.317.419 1.003.282 1.698.71 2.618 1.534.14.126.347.147.51.051l1.86-1.09-.595-.157 2.412 4.143.16-.596-1.896 1.086a.435.435 0 0 0-.21.467A7.39 7.39 0 0 1 27.4 20zm-4.22 0c0 1.74-1.424 3.152-3.182 3.152-1.76 0-3.183-1.411-3.183-3.152 0-1.74 1.424-3.152 3.183-3.152 1.757 0 3.182 1.413 3.182 3.152zm.87 0c0-2.221-1.816-4.022-4.052-4.022-2.238 0-4.052 1.8-4.052 4.022 0 2.223 1.814 4.022 4.052 4.022 2.236 0 4.052-1.8 4.052-4.022z" fill-rule="nonzero"/></g></svg>
